X: 1
T: Loophead Lighthouse
M: 4/4
L: 1/8
R: reel
K: Bdor
B2FE Fddd|deed cBAF|~A3E FEA2|FEAE FAAc|
B2FE Fddd|deed cBce|f2ed cBe2|1dcBA BcAc:|2dcBA Bcde||
~f3e afff|dfff afed|c2Bc AEEE|~A3B ceea|
~f3e afff|dfff afed|ceee ~f3a|1afed Bcde:|2afed Bddc||
&quot;Last time&quot; afec fe (3cBA|B4 z4||
